svg/u1f44f_1f3fd.svg

<svg viewBox="0 0 128 128" xmlns="http://www.w3.org/2000/svg">
  <g id="hand_1_">
    <radialGradient id="SVGID_1_" cx="-1063.8756" cy="-335.59" gradientTransform="matrix(0.6817 -0.7317 0.7317 0.6817 1006.9296 -503.6581)" gradientUnits="userSpaceOnUse" r="86.1722">
      <stop offset="0.494" stop-color="#A47B62"/>
      <stop offset="1" stop-color="#BA8D68"/>
    </radialGradient>
    <path d="M72.18,120.65c-4.98,0-9.88-1.77-14.56-5.26c-3.9-2.91-43.84-39.19-44.25-39.55 c-1.94-1.81-4.75-5.35-1.68-8.65c1.16-1.25,2.62-1.91,4.2-1.91c1.78,0,3.63,0.81,5.21,2.28l16.5,14.77c0.29,0.26,0.64,0.38,1,0.38 c0.4,0,0.8-0.16,1.1-0.48c0.56-0.6,0.53-1.53-0.06-2.1L13.24,54.74c-1.5-1.4-2.43-3.08-2.63-4.76c-0.21-1.7,0.34-3.29,1.58-4.62 c1.16-1.25,2.62-1.91,4.21-1.91c1.78,0,3.63,0.81,5.21,2.28l26.96,24.49c0.29,0.26,0.65,0.39,1.01,0.39c0.4,0,0.8-0.16,1.1-0.48 c0.56-0.6,0.53-1.54-0.06-2.11L18.17,37.05c-1.5-1.39-2.42-3.08-2.63-4.75c-0.21-1.7,0.34-3.29,1.58-4.62 c1.16-1.25,2.62-1.91,4.21-1.91c1.78,0,3.63,0.81,5.21,2.28l33.03,30c0.29,0.26,0.65,0.39,1.01,0.39c0.4,0,0.8-0.16,1.1-0.48 c0.56-0.6,0.53-1.54-0.06-2.11L37.57,32.84c-2.62-2.44-3.95-6.27-1.05-9.38c1.16-1.25,2.62-1.91,4.21-1.91 c1.78,0,3.63,0.81,5.21,2.28c8.79,8.04,31.75,29.08,32.54,29.87c0.61,0.68,1.28,0.83,1.73,0.83c1.75,0,2.61-2.03,2.68-4.03 c0.09-2.45-0.56-5.5-1.19-8.45c-0.69-3.24-1.41-6.6-1.09-8.88c0.64-4.62,4.83-7.57,7.42-7.57c0.32,0,0.6,0.05,0.81,0.14 c4,1.71,3.94,4.09,3.38,9.8l-0.11,1.1c-0.52,5.57,1.97,10.68,4.38,15.62c1.08,2.21,2.19,4.49,3.03,6.79 c0.4,1.1,0.96,2.34,1.61,3.79c4.39,9.72,11.73,25.98-6.55,45.77C87.2,116.6,79.67,120.65,72.18,120.65L72.18,120.65z" fill="url(#SVGID_1_)"/>
    <path d="M40.72,23.06L40.72,23.06c1.4,0,2.89,0.67,4.21,1.89c12.46,11.4,31.26,28.63,32.46,29.8 c1.05,1.13,2.21,1.3,2.82,1.3c2.38,0,4.07-2.2,4.18-5.48c0.09-2.64-0.58-5.78-1.23-8.82c-0.67-3.12-1.36-6.34-1.08-8.36 c0.57-4.06,4.22-6.28,5.94-6.28c0.15,0,0.22,0.02,0.23,0.02c0,0,0,0,0,0c2.9,1.24,3.04,2.48,2.47,8.27l-0.11,1.11 c-0.56,5.99,2.02,11.29,4.52,16.42c1.06,2.17,2.15,4.42,2.96,6.65c0.42,1.15,0.99,2.42,1.66,3.89 c4.23,9.38,11.32,25.07-6.29,44.13c-7.08,7.66-14.24,11.54-21.29,11.54c-4.65,0-9.24-1.67-13.66-4.97 c-3.19-2.38-32.94-29.29-44.11-39.43c-4.13-3.85-2.24-5.88-1.62-6.54c0.88-0.95,1.93-1.43,3.11-1.43c1.4,0,2.89,0.67,4.19,1.88 c0.01,0.01,0.03,0.03,0.04,0.04l16.48,14.75c0.57,0.51,1.29,0.76,2,0.76c0.81,0,1.61-0.32,2.2-0.96c1.11-1.2,1.06-3.07-0.12-4.2 L14.24,53.62c-1.9-1.77-3.3-4.74-0.96-7.24c0.88-0.95,1.93-1.43,3.11-1.43c1.4,0,2.89,0.67,4.22,1.9l26.95,24.47 c0.57,0.52,1.3,0.78,2.02,0.78c0.8,0,1.61-0.32,2.2-0.96c1.12-1.2,1.06-3.08-0.12-4.21l-32.47-31c-1.9-1.77-3.3-4.74-0.96-7.24 c0.88-0.95,1.93-1.43,3.11-1.43c1.4,0,2.89,0.67,4.22,1.9l33.02,29.99c0.57,0.52,1.3,0.78,2.02,0.78c0.8,0,1.6-0.32,2.19-0.95 c1.12-1.2,1.07-3.08-0.12-4.21L38.58,31.73c-1.9-1.77-3.3-4.74-0.96-7.24C38.5,23.54,39.55,23.06,40.72,23.06 M40.72,20.06 c-1.91,0-3.78,0.75-5.3,2.38c-3.24,3.48-2.38,8.23,1.11,11.48l24.04,23.01L27.55,26.94c-1.85-1.72-4.07-2.68-6.23-2.68 c-1.91,0-3.78,0.75-5.3,2.38c-3.24,3.48-2.38,8.23,1.11,11.48l32.44,30.97L22.62,44.63c-1.85-1.72-4.07-2.68-6.23-2.68 c-1.91,0-3.78,0.75-5.3,2.38c-3.24,3.48-2.38,8.23,1.11,11.48L38.61,81.2L22.13,66.46c-1.85-1.72-4.07-2.68-6.23-2.68 c-1.91,0-3.78,0.75-5.3,2.38c-3.24,3.48-1.73,7.53,1.77,10.78c0,0,40.36,36.66,44.36,39.64c3.32,2.47,8.68,5.56,15.46,5.56 c6.67,0,14.7-2.99,23.5-12.51c21.77-23.56,8.19-42.99,5.25-51.09c-2.74-7.53-8.02-14.24-7.32-21.76 c0.56-5.99,1.34-10.07-4.18-12.42c-0.41-0.18-0.89-0.26-1.4-0.26c-3.26,0-8.15,3.38-8.91,8.86c-0.66,4.73,2.45,12.57,2.28,17.48 c-0.04,1.22-0.5,2.59-1.19,2.59c-0.2,0-0.42-0.11-0.65-0.37c-0.44-0.49-32.6-29.93-32.6-29.93C45.1,21.01,42.88,20.06,40.72,20.06 L40.72,20.06z" fill="#91674D"/>
  </g>
  <g id="hand">
    <radialGradient id="SVGID_2_" cx="-477.2491" cy="-6.351" gradientTransform="matrix(0.9297 -0.3684 0.3684 0.9297 502.8413 -132.1724)" gradientUnits="userSpaceOnUse" r="87.5809">
      <stop offset="0.3582" stop-color="#BA8D68"/>
      <stop offset="0.8723" stop-color="#A47B62"/>
    </radialGradient>
    <path d="M70.94,122.5c-15.08,0-22.73-10.15-25.95-16.2c-2.29-4.3-22.09-51.14-22.29-51.62 c-0.8-2.02-1.06-3.88-0.72-5.34c0.34-1.5,1.3-2.54,2.92-3.18c0.76-0.3,1.52-0.45,2.26-0.45c2.57,0,4.9,1.85,6.08,4.83l8.57,20.42 c0.24,0.57,0.8,0.92,1.38,0.92c0.19,0,0.37-0.03,0.56-0.11c0.76-0.3,1.14-1.16,0.85-1.92L31.64,35.59 c-1.32-3.33-0.87-7.36,3.07-8.93c0.76-0.3,1.52-0.45,2.26-0.45c2.57,0,4.9,1.85,6.08,4.83L56.9,64.73c0.24,0.58,0.8,0.93,1.39,0.93 c0.18,0,0.37-0.03,0.55-0.11c0.76-0.3,1.14-1.16,0.85-1.93l-16.01-41.9c-1.32-3.32-0.87-7.36,3.08-8.92 c0.76-0.3,1.52-0.45,2.26-0.45c2.57,0,4.9,1.85,6.08,4.83l16.96,41.27c0.24,0.58,0.8,0.93,1.39,0.93c0.18,0,0.37-0.03,0.55-0.11 c0.76-0.3,1.14-1.16,0.85-1.93l-11.84-31.1c-1.32-3.32-0.87-7.36,3.07-8.92c0.76-0.3,1.52-0.45,2.26-0.45 c2.57,0,4.9,1.85,6.08,4.83C78.92,32.75,90.63,61.6,91,62.65c0.46,1.57,1.71,1.69,2.08,1.69c1.79,0,3.04-2.24,3.28-2.69 c1-1.92,1.27-4.12,1.56-6.45c0.43-3.42,0.87-6.95,3.66-10c2.32-2.54,5.29-4,8.16-4c1.37,0,2.61,0.34,3.56,0.98 c2.39,1.6,2.52,3.15,2.32,4.46c-0.34,2.29-2.13,5.22-3.84,7.78c-3.46,5.18-3.87,13.07-4.22,20.03c-0.11,2.06-0.21,4.01-0.38,5.81 c-0.14,1.48-0.09,3.26-0.02,5.33c0.16,5.22,0.36,11.72-2.34,18.03c-3.19,7.45-9.67,12.78-19.81,16.29 C80.04,121.63,75.31,122.5,70.94,122.5C70.94,122.5,70.94,122.5,70.94,122.5z" fill="url(#SVGID_2_)"/>
    <path d="M49.02,13.85L49.02,13.85c1.94,0,3.74,1.49,4.7,3.92l16.95,41.25c0.48,1.16,1.59,1.86,2.78,1.86 c0.37,0,0.74-0.07,1.1-0.21c1.53-0.6,2.28-2.32,1.7-3.86L64.4,25.68c-0.62-1.55-0.72-3.11-0.3-4.38c0.4-1.2,1.26-2.07,2.54-2.58 c0.58-0.23,1.16-0.35,1.71-0.35c1.94,0,3.74,1.49,4.69,3.91c6.36,15.65,15.95,39.29,16.54,40.84c0.53,1.66,1.9,2.72,3.51,2.72 c2.59,0,4.18-2.68,4.61-3.5c1.12-2.16,1.43-4.6,1.72-6.95c0.42-3.33,0.81-6.47,3.28-9.18c2.04-2.23,4.61-3.51,7.05-3.51 c1.06,0,2.03,0.26,2.73,0.72c1.87,1.25,3.35,2.23-1.93,10.16c-3.69,5.53-4.1,13.63-4.48,20.79c-0.11,2.04-0.21,3.97-0.37,5.75 c-0.15,1.57-0.09,3.4-0.03,5.51c0.31,10.06,0.78,25.27-21.14,32.85c-4.82,1.67-9.39,2.51-13.58,2.51 c-14.29,0-21.57-9.65-24.63-15.4c-1.87-3.51-16.66-38.31-22.22-51.46c-2.06-5.22,0.51-6.24,1.36-6.57 c0.58-0.23,1.16-0.35,1.71-0.35c1.94,0,3.74,1.49,4.68,3.88c0.01,0.02,0.02,0.04,0.02,0.06l8.56,20.39 c0.48,1.15,1.59,1.84,2.77,1.84c0.37,0,0.75-0.07,1.11-0.21c1.52-0.61,2.27-2.32,1.69-3.85L33.02,35.02 c-0.96-2.42-0.95-5.69,2.24-6.96c0.58-0.23,1.16-0.35,1.71-0.35c1.94,0,3.74,1.49,4.7,3.92L55.51,65.3 c0.48,1.16,1.59,1.86,2.78,1.86c0.37,0,0.74-0.07,1.1-0.21c1.53-0.61,2.28-2.33,1.7-3.86L45.07,21.16 c-0.96-2.42-0.95-5.69,2.24-6.96C47.89,13.97,48.46,13.85,49.02,13.85 M49.02,10.85c-0.91,0-1.86,0.18-2.82,0.56 c-4.42,1.75-5.68,6.41-3.92,10.85l16.01,41.9L44.45,30.49c-1.38-3.47-4.2-5.78-7.47-5.78c-0.91,0-1.86,0.18-2.82,0.56 c-4.42,1.75-5.68,6.41-3.92,10.85L43.2,70.39l-8.56-20.39c-1.38-3.47-4.2-5.78-7.47-5.78c-0.91,0-1.86,0.18-2.82,0.56 c-4.42,1.75-4.79,6.06-3.03,10.5c0,0,20,47.33,22.35,51.74C47.4,114.03,55.75,124,70.94,124c4.29,0,9.13-0.79,14.57-2.68 c28.63-9.91,22.36-32.35,23.17-40.92c0.76-7.98,0.17-18.86,4.36-25.15c4.4-6.61,6.09-10.99,1.1-14.32 c-1.19-0.79-2.72-1.23-4.4-1.23c-2.97,0-6.41,1.36-9.26,4.49c-5.06,5.55-3.18,12.41-5.45,16.77c-0.5,0.96-1.33,1.88-1.95,1.88 c-0.28,0-0.52-0.19-0.66-0.67c-0.19-0.63-16.61-41.03-16.61-41.03c-1.38-3.47-4.2-5.78-7.47-5.78c-0.91,0-1.86,0.18-2.82,0.56 c-4.42,1.75-5.68,6.41-3.92,10.85l11.84,31.1L56.49,16.63C55.12,13.16,52.3,10.85,49.02,10.85L49.02,10.85z" fill="#91674D"/>
  </g>
  <line fill="none" stroke="#B0BEC5" stroke-linecap="round" stroke-linejoin="round" stroke-miterlimit="10" stroke-width="4.4047" x1="99.07" x2="115.96" y1="30.43" y2="23.82"/>
  <line fill="none" stroke="#B0BEC5" stroke-linecap="round" stroke-linejoin="round" stroke-miterlimit="10" stroke-width="4.4047" x1="83.29" x2="81.82" y1="20.15" y2="4"/>
  <line fill="none" stroke="#B0BEC5" stroke-linecap="round" stroke-linejoin="round" stroke-miterlimit="10" stroke-width="4.4047" x1="94.1" x2="105.31" y1="22.1" y2="5.47"/>
</svg>

<svg viewBox="0 0 128 128" xmlns="http://www.w3.org/2000/svg">
  <defs>
    <radialGradient id="SVGID_1_" cx="-9.030312" cy="57.797409" gradientTransform="matrix(0.6817 -0.7317 0.7317 0.6817 0 0)" gradientUnits="userSpaceOnUse" r="86.1722">
      <stop offset="0.494" stop-color="#A47B62"/>
      <stop offset="1" stop-color="#BA8D68"/>
    </radialGradient>
    <radialGradient id="SVGID_2_" cx="38.903464" cy="56.011272" gradientTransform="matrix(0.9297 -0.3684 0.3684 0.9297 0 0)" gradientUnits="userSpaceOnUse" r="87.5809">
      <stop offset="0.3582" stop-color="#BA8D68"/>
      <stop offset="0.8723" stop-color="#A47B62"/>
    </radialGradient>
  </defs>
  <path d="M72.18,120.65 C67.2,120.65 62.3,118.88 57.62,115.39 C53.72,112.48 13.78,76.2 13.37,75.84 C11.43,74.03 8.62,70.49 11.69,67.19 C12.85,65.94 14.31,65.28 15.89,65.28 C17.67,65.28 19.52,66.09 21.1,67.56 L37.6,82.33 C37.89,82.59 38.24,82.71 38.6,82.71 C39,82.71 39.4,82.55 39.7,82.23 C40.26,81.63 40.23,80.7 39.64,80.13 L13.24,54.74 C11.74,53.34 10.81,51.66 10.61,49.98 C10.4,48.28 10.95,46.69 12.19,45.36 C13.35,44.11 14.81,43.45 16.4,43.45 C18.18,43.45 20.03,44.26 21.61,45.73 L48.57,70.22 C48.86,70.48 49.22,70.61 49.58,70.61 C49.98,70.61 50.38,70.45 50.68,70.13 C51.24,69.53 51.21,68.59 50.62,68.02 L18.17,37.05 C16.67,35.66 15.75,33.97 15.54,32.3 C15.33,30.6 15.88,29.01 17.12,27.68 C18.28,26.43 19.74,25.77 21.33,25.77 C23.11,25.77 24.96,26.58 26.54,28.05 L59.57,58.05 C59.86,58.31 60.22,58.44 60.58,58.44 C60.98,58.44 61.38,58.28 61.68,57.96 C62.24,57.36 62.21,56.42 61.62,55.85 L37.57,32.84 C34.95,30.4 33.62,26.57 36.52,23.46 C37.68,22.21 39.14,21.55 40.73,21.55 C42.51,21.55 44.36,22.36 45.94,23.83 C54.73,31.87 77.69,52.91 78.48,53.7 C79.09,54.38 79.76,54.53 80.21,54.53 C81.96,54.53 82.82,52.5 82.89,50.5 C82.98,48.05 82.33,45 81.7,42.05 C81.01,38.81 80.29,35.45 80.61,33.17 C81.25,28.55 85.44,25.6 88.03,25.6 C88.35,25.6 88.63,25.65 88.84,25.74 C92.84,27.45 92.78,29.83 92.22,35.54 L92.11,36.64 C91.59,42.21 94.08,47.32 96.49,52.26 C97.57,54.47 98.68,56.75 99.52,59.05 C99.92,60.15 100.48,61.39 101.13,62.84 C105.52,72.56 112.86,88.82 94.58,108.61 C87.2,116.6 79.67,120.65 72.18,120.65 L72.18,120.65 Z" fill="url(#SVGID_1_)"/>
  <path d="M40.72,23.06 L40.72,23.06 C42.12,23.06 43.61,23.73 44.93,24.95 C57.39,36.35 76.19,53.58 77.39,54.75 C78.44,55.88 79.6,56.05 80.21,56.05 C82.59,56.05 84.28,53.85 84.39,50.57 C84.48,47.93 83.81,44.79 83.16,41.75 C82.49,38.63 81.8,35.41 82.08,33.39 C82.65,29.33 86.3,27.11 88.02,27.11 C88.17,27.11 88.24,27.13 88.25,27.13 C88.25,27.13 88.25,27.13 88.25,27.13 C91.15,28.37 91.29,29.61 90.72,35.4 L90.61,36.51 C90.05,42.5 92.63,47.8 95.13,52.93 C96.19,55.1 97.28,57.35 98.09,59.58 C98.51,60.73 99.08,62 99.75,63.47 C103.98,72.85 111.07,88.54 93.46,107.6 C86.38,115.26 79.22,119.14 72.17,119.14 C67.52,119.14 62.93,117.47 58.51,114.17 C55.32,111.79 25.57,84.88 14.4,74.74 C10.27,70.89 12.16,68.86 12.78,68.2 C13.66,67.25 14.71,66.77 15.89,66.77 C17.29,66.77 18.78,67.44 20.08,68.65 C20.09,68.66 20.11,68.68 20.12,68.69 L36.6,83.44 C37.17,83.95 37.89,84.2 38.6,84.2 C39.41,84.2 40.21,83.88 40.8,83.24 C41.91,82.04 41.86,80.17 40.68,79.04 L14.24,53.62 C12.34,51.85 10.94,48.88 13.28,46.38 C14.16,45.43 15.21,44.95 16.39,44.95 C17.79,44.95 19.28,45.62 20.61,46.85 L47.56,71.32 C48.13,71.84 48.86,72.1 49.58,72.1 C50.38,72.1 51.19,71.78 51.78,71.14 C52.9,69.94 52.84,68.06 51.66,66.93 L19.19,35.93 C17.29,34.16 15.89,31.19 18.23,28.69 C19.11,27.74 20.16,27.26 21.34,27.26 C22.74,27.26 24.23,27.93 25.56,29.16 L58.58,59.15 C59.15,59.67 59.88,59.93 60.6,59.93 C61.4,59.93 62.2,59.61 62.79,58.98 C63.91,57.78 63.86,55.9 62.67,54.77 L38.58,31.73 C36.68,29.96 35.28,26.99 37.62,24.49 C38.5,23.54 39.55,23.06 40.72,23.06 M40.72,20.06 C38.81,20.06 36.94,20.81 35.42,22.44 C32.18,25.92 33.04,30.67 36.53,33.92 L60.57,56.93 L27.55,26.94 C25.7,25.22 23.48,24.26 21.32,24.26 C19.41,24.26 17.54,25.01 16.02,26.64 C12.78,30.12 13.64,34.87 17.13,38.12 L49.57,69.09 L22.62,44.63 C20.77,42.91 18.55,41.95 16.39,41.95 C14.48,41.95 12.61,42.7 11.09,44.33 C7.85,47.81 8.71,52.56 12.2,55.81 L38.61,81.2 L22.13,66.46 C20.28,64.74 18.06,63.78 15.9,63.78 C13.99,63.78 12.12,64.53 10.6,66.16 C7.36,69.64 8.87,73.69 12.37,76.94 C12.37,76.94 52.73,113.6 56.73,116.58 C60.05,119.05 65.41,122.14 72.19,122.14 C78.86,122.14 86.89,119.15 95.69,109.63 C117.46,86.07 103.88,66.64 100.94,58.54 C98.2,51.01 92.92,44.3 93.62,36.78 C94.18,30.79 94.96,26.71 89.44,24.36 C89.03,24.18 88.55,24.1 88.04,24.1 C84.78,24.1 79.89,27.48 79.13,32.96 C78.47,37.69 81.58,45.53 81.41,50.44 C81.37,51.66 80.91,53.03 80.22,53.03 C80.02,53.03 79.8,52.92 79.57,52.66 C79.13,52.17 46.97,22.73 46.97,22.73 C45.1,21.01 42.88,20.06 40.72,20.06 L40.72,20.06 Z" fill="#91674D"/>
  <path d="M70.94,122.5 C55.86,122.5 48.21,112.35 44.99,106.3 C42.7,102 22.9,55.16 22.7,54.68 C21.9,52.66 21.64,50.8 21.98,49.34 C22.32,47.84 23.28,46.8 24.9,46.16 C25.66,45.86 26.42,45.71 27.16,45.71 C29.73,45.71 32.06,47.56 33.24,50.54 L41.81,70.96 C42.05,71.53 42.61,71.88 43.19,71.88 C43.38,71.88 43.56,71.85 43.75,71.77 C44.51,71.47 44.89,70.61 44.6,69.85 L31.64,35.59 C30.32,32.26 30.77,28.23 34.71,26.66 C35.47,26.36 36.23,26.21 36.97,26.21 C39.54,26.21 41.87,28.06 43.05,31.04 L56.9,64.73 C57.14,65.31 57.7,65.66 58.29,65.66 C58.47,65.66 58.66,65.63 58.84,65.55 C59.6,65.25 59.98,64.39 59.69,63.62 L43.68,21.72 C42.36,18.4 42.81,14.36 46.76,12.8 C47.52,12.5 48.28,12.35 49.02,12.35 C51.59,12.35 53.92,14.2 55.1,17.18 L72.06,58.45 C72.3,59.03 72.86,59.38 73.45,59.38 C73.63,59.38 73.82,59.35 74,59.27 C74.76,58.97 75.14,58.11 74.85,57.34 L63.01,26.24 C61.69,22.92 62.14,18.88 66.08,17.32 C66.84,17.02 67.6,16.87 68.34,16.87 C70.91,16.87 73.24,18.72 74.42,21.7 C78.92,32.75 90.63,61.6 91,62.65 C91.46,64.22 92.71,64.34 93.08,64.34 C94.87,64.34 96.12,62.1 96.36,61.65 C97.36,59.73 97.63,57.53 97.92,55.2 C98.35,51.78 98.79,48.25 101.58,45.2 C103.9,42.66 106.87,41.2 109.74,41.2 C111.11,41.2 112.35,41.54 113.3,42.18 C115.69,43.78 115.82,45.33 115.62,46.64 C115.28,48.93 113.49,51.86 111.78,54.42 C108.32,59.6 107.91,67.49 107.56,74.45 C107.45,76.51 107.35,78.46 107.18,80.26 C107.04,81.74 107.09,83.52 107.16,85.59 C107.32,90.81 107.52,97.31 104.82,103.62 C101.63,111.07 95.15,116.4 85.01,119.91 C80.04,121.63 75.31,122.5 70.94,122.5 C70.94,122.5 70.94,122.5 70.94,122.5 Z" fill="url(#SVGID_2_)"/>
  <path d="M49.02,13.85 L49.02,13.85 C50.96,13.85 52.76,15.34 53.72,17.77 L70.67,59.02 C71.15,60.18 72.26,60.88 73.45,60.88 C73.82,60.88 74.19,60.81 74.55,60.67 C76.08,60.07 76.83,58.35 76.25,56.81 L64.4,25.68 C63.78,24.13 63.68,22.57 64.1,21.3 C64.5,20.1 65.36,19.23 66.64,18.72 C67.22,18.49 67.8,18.37 68.35,18.37 C70.29,18.37 72.09,19.86 73.04,22.28 C79.4,37.93 88.99,61.57 89.58,63.12 C90.11,64.78 91.48,65.84 93.09,65.84 C95.68,65.84 97.27,63.16 97.7,62.34 C98.82,60.18 99.13,57.74 99.42,55.39 C99.84,52.06 100.23,48.92 102.7,46.21 C104.74,43.98 107.31,42.7 109.75,42.7 C110.81,42.7 111.78,42.96 112.48,43.42 C114.35,44.67 115.83,45.65 110.55,53.58 C106.86,59.11 106.45,67.21 106.07,74.37 C105.96,76.41 105.86,78.34 105.7,80.12 C105.55,81.69 105.61,83.52 105.67,85.63 C105.98,95.69 106.45,110.9 84.53,118.48 C79.71,120.15 75.14,120.99 70.95,120.99 C56.66,120.99 49.38,111.34 46.32,105.59 C44.45,102.08 29.66,67.28 24.1,54.13 C22.04,48.91 24.61,47.89 25.46,47.56 C26.04,47.33 26.62,47.21 27.17,47.21 C29.11,47.21 30.91,48.7 31.85,51.09 C31.86,51.11 31.87,51.13 31.87,51.15 L40.43,71.54 C40.91,72.69 42.02,73.38 43.2,73.38 C43.57,73.38 43.95,73.31 44.31,73.17 C45.83,72.56 46.58,70.85 46,69.32 L33.02,35.02 C32.06,32.6 32.07,29.33 35.26,28.06 C35.84,27.83 36.42,27.71 36.97,27.71 C38.91,27.71 40.71,29.2 41.67,31.63 L55.51,65.3 C55.99,66.46 57.1,67.16 58.29,67.16 C58.66,67.16 59.03,67.09 59.39,66.95 C60.92,66.34 61.67,64.62 61.09,63.09 L45.07,21.16 C44.11,18.74 44.12,15.47 47.31,14.2 C47.89,13.97 48.46,13.85 49.02,13.85 M49.02,10.85 C48.11,10.85 47.16,11.03 46.2,11.41 C41.78,13.16 40.52,17.82 42.28,22.26 L58.29,64.16 L44.45,30.49 C43.07,27.02 40.25,24.71 36.98,24.71 C36.07,24.71 35.12,24.89 34.16,25.27 C29.74,27.02 28.48,31.68 30.24,36.12 L43.2,70.39 L34.64,50 C33.26,46.53 30.44,44.22 27.17,44.22 C26.26,44.22 25.31,44.4 24.35,44.78 C19.93,46.53 19.56,50.84 21.32,55.28 C21.32,55.28 41.32,102.61 43.67,107.02 C47.4,114.03 55.75,124 70.94,124 C75.23,124 80.07,123.21 85.51,121.32 C114.14,111.41 107.87,88.97 108.68,80.4 C109.44,72.42 108.85,61.54 113.04,55.25 C117.44,48.64 119.13,44.26 114.14,40.93 C112.95,40.14 111.42,39.7 109.74,39.7 C106.77,39.7 103.33,41.06 100.48,44.19 C95.42,49.74 97.3,56.6 95.03,60.96 C94.53,61.92 93.7,62.84 93.08,62.84 C92.8,62.84 92.56,62.65 92.42,62.17 C92.23,61.54 75.81,21.14 75.81,21.14 C74.43,17.67 71.61,15.36 68.34,15.36 C67.43,15.36 66.48,15.54 65.52,15.92 C61.1,17.67 59.84,22.33 61.6,26.77 L73.44,57.87 L56.49,16.63 C55.12,13.16 52.3,10.85 49.02,10.85 L49.02,10.85 Z" fill="#91674D"/>
  <path d="M98.267,28.379 L115.157,21.769 Q116.007,21.437 116.843,21.802 Q117.678,22.168 118.011,23.017 Q118.343,23.867 117.978,24.703 Q117.612,25.538 116.763,25.871 L99.873,32.481 Q99.023,32.813 98.187,32.448 Q97.352,32.082 97.019,31.233 Q96.687,30.383 97.052,29.547 Q97.418,28.712 98.267,28.379 Z" fill="#B0BEC5"/>
  <path d="M81.097,20.35 L79.627,4.2 Q79.544,3.291 80.128,2.59 Q80.712,1.889 81.62,1.807 Q82.529,1.724 83.23,2.308 Q83.931,2.892 84.013,3.8 L85.483,19.95 Q85.566,20.859 84.982,21.56 Q84.398,22.261 83.49,22.343 Q82.581,22.426 81.88,21.842 Q81.179,21.258 81.097,20.35 Z" fill="#B0BEC5"/>
  <path d="M92.274,20.869 L103.484,4.239 Q103.994,3.483 104.889,3.308 Q105.785,3.134 106.541,3.644 Q107.297,4.154 107.472,5.049 Q107.646,5.945 107.136,6.701 L95.926,23.331 Q95.416,24.087 94.521,24.262 Q93.625,24.436 92.869,23.926 Q92.113,23.416 91.938,22.521 Q91.764,21.625 92.274,20.869 Z" fill="#B0BEC5"/>
</svg>
